X:4
T:Margaret's Waltz
R:waltz
C:Pat Shaw, Shetland
O:Shetland
Z:id:hn-waltz-4
M:3/4
K:A
AF|E3 F AB|c4 Ac|BA F2 Ac|B4 AF|E3 F AB|c e3 A2|c4 B2|A4:|
cd|e2 f2 g2|a2 g2 a2|fe d2 f2|e4 cB|A3 B cd|e4 ce|fe d2 (3cAc|B4 cd|
eA fA gA|aA gA fA|eA dA (3cAc|B4 AF|E3 F AB|c e3 A2|c4 B2|A4||

